X: 1738
T: Higgins' Hornpipe
R: hornpipe
B: O'Neill's 1850 #1738
O: J.O'Neill
Z: Bob Safranek, rjs@gsp.org
Z: A.LEE WORMAN
N: Compacted by using labels and play order [JC]
P: Play ABAB CBCB
M: C|
L: 1/8
K: D
"^A"[|] F>E \
| D>FA>F D>GB>G | F>Ad>e f>dA>F \
| F>A (3def g>fe>d | (3efd (3cdB (3ABG (3FGE |]
"^B"[| \
| D>FA>F D>GB>G | F>Ad>e f>dA>F \
| F>Ad>g f>ed>c | d2f2 d2 |]
"^C"[| c>d \
| e>A (3AAA f>A (3AAA | g>A (3AAA f>A (3AAA \
| e>Af>A g>Af>A | (3efd (3cdB (3ABG (3FGE |]
